apps/documenteditor/main/resources/img/toolbar/2.5x/big/btn-text-fixed-field.svg

<svg xmlns="http://www.w3.org/2000/svg" width="28" height="28" fill="none"><path fill="#000" d="M10 10H9v8h1v1H7v-1h1v-8H7V9h3v1Z"/><path fill="#000" d="M5 6h18V4h3v3h-2v14h2v3h-3v-2H5v2H2v-3h2V7H2V4h3v2ZM3 23h1v-1H3v1Zm21 0h1v-1h-1v1ZM5 21h18V7H5v14ZM3 6h1V5H3v1Zm21 0h1V5h-1v1Z"/></svg>

<svg width="28" height="28" viewBox="0 0 28 28" fill="none" xmlns="http://www.w3.org/2000/svg">
<path fill-rule="evenodd" clip-rule="evenodd" d="M4 5H3V6H4V5ZM4 21V7H2V4H5V6H23V4H26V7H24V21H26V24H23V22H5V24H2V21H4ZM24 22V23H25V22H24ZM23 21V7H5V21H23ZM3 22H4V23H3V22ZM24 6H25V5H24V6ZM8 9H7V10H8V18H7V19H8H9H10V18H9V10H10V9H9H8Z" fill="black"/>
</svg>
